app/dist/common/images/oki-electric-industry-co-ltd.svg

<svg height="18" viewBox="0 0 18 18" width="18" xmlns="http://www.w3.org/2000/svg"><path d="m0 0h18v18h-18z" fill="#f0f3fa"/><g fill="#de1f27"><path d="m16 7h-3v.33h.67v3.34h-.67v.33h3v-.33h-.67v-3.34h.67zm-6.56 0h-1.94v.33h.28v3.34h-.28v.33h1.94v-.33h-.27v-1.34l.41-.33 1.11 1.67h-.41v.33h2.22v-.33h-.28l-1.66-2.17 1.1-1.17h.56v-.33h-2.08v.33h.42l-1.4 1.34v-1.34h.28z"/><path d="m3.67 7c-.92 0-1.67.83-1.67 1.85v.3c0 1.02.75 1.85 1.67 1.85h1.66c.92 0 1.67-.83 1.67-1.85v-.3c0-1.02-.75-1.85-1.67-1.85zm.83.33c-.49 0-.88.5-.88 1.11v1.12c0 .6.4 1.1.88 1.1.49 0 .88-.5.88-1.1v-1.12c0-.6-.4-1.1-.88-1.1z" fill-rule="evenodd"/></g></svg>

<!-- by TradingView --><svg width="18" height="18" viewBox="0 0 18 18" xmlns="http://www.w3.org/2000/svg"><path fill="#F0F3FA" d="M0 0h18v18H0z"/><path d="M16 7h-3v.33h.67v3.34H13V11h3v-.33h-.67V7.33H16V7ZM9.44 7H7.5v.33h.28v3.34H7.5V11h1.94v-.33h-.27V9.33L9.58 9l1.11 1.67h-.41V11h2.22v-.33h-.28L10.56 8.5l1.1-1.17h.56V7h-2.08v.33h.42l-1.4 1.34V7.33h.28V7Z" fill="#DE1F27"/><path fill-rule="evenodd" d="M3.67 7C2.75 7 2 7.83 2 8.85v.3C2 10.17 2.75 11 3.67 11h1.66C6.25 11 7 10.17 7 9.15v-.3C7 7.83 6.25 7 5.33 7H3.67Zm.83.33c-.49 0-.88.5-.88 1.11v1.12c0 .6.4 1.1.88 1.1.49 0 .88-.5.88-1.1V8.44c0-.6-.4-1.1-.88-1.1Z" fill="#DE1F27"/></svg>
